packages/kaspersky-hexa-ui-icons/src/iconsSVGs/16/WhatsappColor.svg

<svg width="16" height="16" viewBox="0 0 16 16" fill="none" xmlns="http://www.w3.org/2000/svg">
<path fill-rule="evenodd" clip-rule="evenodd" d="M12.9601 3.03292C11.6442 1.72262 9.89412 1.00066 8.0294 1C4.18698 1 1.05983 4.10955 1.05849 7.93174C1.05782 9.15361 1.37903 10.3462 1.98902 11.3973L1 14.9898L4.69536 14.0258C5.71345 14.5783 6.85989 14.8691 8.02641 14.8695H8.0294C11.8712 14.8695 14.9987 11.7596 15 7.93739C15.0007 6.08498 14.2764 4.34355 12.9601 3.03325V3.03292ZM8.0294 13.6988H8.02707C6.98757 13.6985 5.96782 13.4206 5.07808 12.8957L4.8665 12.7708L2.67354 13.3428L3.2588 11.2164L3.12109 10.9984C2.54118 10.081 2.23468 9.02065 2.23535 7.93209C2.23669 4.75539 4.83574 2.17069 8.03177 2.17069C9.57928 2.17136 11.0339 2.77133 12.1279 3.86058C13.2218 4.94951 13.8238 6.39743 13.8231 7.93673C13.8218 11.1138 11.2228 13.6985 8.0294 13.6985V13.6988ZM11.2074 9.38364C11.0332 9.2969 10.1769 8.87806 10.0171 8.82024C9.85737 8.76238 9.74141 8.73349 9.6254 8.90698C9.50943 9.08051 9.17553 9.47074 9.07392 9.58606C8.9723 9.70174 8.87068 9.71605 8.69654 9.62926C8.52243 9.54251 7.96123 9.3597 7.29576 8.76969C6.77803 8.31032 6.42838 7.74328 6.32681 7.56975C6.22519 7.39626 6.31611 7.30251 6.40299 7.21643C6.48119 7.13865 6.57713 7.01401 6.66436 6.91295C6.75163 6.8119 6.78037 6.73946 6.83851 6.62409C6.89668 6.50842 6.86759 6.4074 6.82416 6.32062C6.78068 6.23387 6.43243 5.38127 6.28702 5.03459C6.14562 4.69689 6.00193 4.74276 5.89529 4.73711C5.79368 4.73212 5.67771 4.73112 5.56139 4.73112C5.44508 4.73112 5.25654 4.77433 5.09679 4.94785C4.93703 5.12134 4.48713 5.54049 4.48713 6.39275C4.48713 7.24501 5.11118 8.06903 5.19841 8.18471C5.28563 8.30038 6.42671 10.0498 8.17379 10.8003C8.58928 10.9788 8.91381 11.0855 9.16682 11.1653C9.58398 11.2972 9.96366 11.2786 10.2638 11.2341C10.5984 11.1842 11.2943 10.8149 11.4393 10.4104C11.5844 10.0059 11.5844 9.65885 11.541 9.58672C11.4975 9.51459 11.3812 9.47105 11.2071 9.3843L11.2074 9.38364Z" fill="#25D366"/>
</svg>

<svg xmlns="http://www.w3.org/2000/svg" width="16" height="16" fill="none" viewBox="0 0 16 16"><path fill="#25d366" fill-rule="evenodd" d="M12.9601 3.033C11.6442 1.7225 9.8941 1.0006 8.0294 1 4.187 1 1.0598 4.1095 1.0584 7.9317a6.89 6.89 0 0 0 .9306 3.4656L1 14.9898l3.6954-.964c1.018.5525 2.1645.8433 3.331.8437h.003c3.8418 0 6.9693-3.1099 6.9706-6.9321.0007-1.8524-.7236-3.5939-2.0399-4.9042zM8.0294 13.6987h-.0023c-1.0395-.0003-2.0593-.2782-2.949-.8031l-.2116-.1249-2.193.572.5853-2.1264-.1377-.218a5.724 5.724 0 0 1-.8858-3.0663c.0014-3.1767 2.6004-5.7614 5.7965-5.7614 1.5475.0007 3.0021.6006 4.0961 1.6899 1.0939 1.089 1.6959 2.5368 1.6952 4.0761-.0013 3.1771-2.6003 5.7618-5.7937 5.7618zm3.178-4.3152c-.1742-.0867-1.0305-.5055-1.1903-.5634-.1597-.0578-.2757-.0867-.3917.0868s-.4499.5637-.5515.679c-.1016.1157-.2032.13-.3774.0433-.174-.0868-.7353-.2696-1.4007-.8596-.5178-.4594-.8674-1.0264-.969-1.2-.1016-.1734-.0107-.2672.0762-.3533.0782-.0777.1741-.2024.2614-.3034.0872-.1011.116-.1735.1741-.289.0582-.1156.029-.2166-.0143-.3034-.0435-.0867-.3918-.9393-.5372-1.286-.1414-.3377-.285-.2918-.3917-.2975a7 7 0 0 0-.334-.006c-.1162 0-.3048.0432-.4645.2168-.1598.1734-.6097.5926-.6097 1.4449 0 .8522.624 1.6762.7113 1.792.0872.1156 1.2283 1.865 2.9754 2.6155.4155.1785.74.2852.993.365.4172.1319.7969.1133 1.097.0688.3346-.0499 1.0305-.4192 1.1755-.8237s.1451-.7515.1017-.8237c-.0435-.0721-.1598-.1157-.3339-.2024z" clip-rule="evenodd"/></svg>
